svgs/next.svg

<svg viewBox="0 0 22 22" xmlns="http://www.w3.org/2000/svg">
<path d="M16.3271 20.6281C16.2453 20.6714 16.2522 20.6851 16.3306 20.6452C16.3547 20.6354 16.3769 20.6212 16.3959 20.6033C16.3959 20.5889 16.3959 20.5889 16.3271 20.6281ZM16.4921 20.5387C16.4529 20.571 16.4529 20.571 16.4997 20.5497C16.517 20.5416 16.5328 20.5307 16.5464 20.5174C16.5464 20.4988 16.5354 20.5029 16.4921 20.5387ZM16.5994 20.4741C16.5602 20.5064 16.5602 20.5064 16.6069 20.4851C16.6243 20.4768 16.6401 20.4656 16.6537 20.4521C16.6537 20.4349 16.6427 20.4383 16.5994 20.4741ZM16.708 20.4101C16.6688 20.4424 16.6688 20.4424 16.7142 20.4205C16.7396 20.4067 16.7609 20.3923 16.7609 20.3881C16.7609 20.371 16.7499 20.3744 16.708 20.4101ZM16.8544 20.3132C16.7795 20.3634 16.7534 20.3957 16.8221 20.36C16.8682 20.3318 16.9465 20.2699 16.9328 20.2699C16.9032 20.2809 16.8785 20.2995 16.8537 20.3132H16.8544ZM10.2803 0.00850131C10.2301 0.0119386 10.0795 0.0256877 9.94754 0.036687C6.82099 0.319919 3.89586 2.00281 2.04179 4.59521C1.01718 6.01704 0.351169 7.66532 0.100414 9.39984C0.0117317 10.0048 0.000732422 10.1835 0.000732422 11.0037C0.000732422 11.8231 0.0117317 11.9991 0.100414 12.6041C0.699188 16.7364 3.63875 20.2053 7.62325 21.4908C8.34026 21.7197 9.09165 21.8779 9.94754 21.9748C10.2803 22.0105 11.7191 22.0105 12.0518 21.9748C13.5312 21.8098 14.7804 21.4448 16.0164 20.8144C16.2061 20.7181 16.2419 20.6927 16.2164 20.6714C15.6135 19.8743 15.0156 19.0734 14.4229 18.2687L12.6651 15.8949L10.4631 12.6329C9.7307 11.5408 8.99075 10.4536 8.24333 9.37165C8.23577 9.37165 8.22615 10.8215 8.22202 12.5896C8.21446 15.6866 8.21446 15.8124 8.17527 15.8839C8.1377 15.9703 8.07037 16.0403 7.98554 16.0812C7.91748 16.1135 7.85629 16.1204 7.53113 16.1204H7.15921L7.06228 16.0599C7.00157 16.021 6.95224 15.9667 6.91929 15.9025L6.87254 15.8056L6.87598 11.4945L6.88354 7.18348L6.9516 7.09755C6.99507 7.04472 7.04857 7.00102 7.10903 6.969C7.19909 6.92569 7.23483 6.91881 7.60675 6.91881C8.04328 6.91881 8.11547 6.936 8.23027 7.0618C9.12227 8.38851 10.0066 9.72036 10.8832 11.0573C12.3124 13.2242 14.2634 16.1809 15.2224 17.6314L16.9665 20.2706L17.0524 20.2135C17.8906 19.6565 18.6501 18.9895 19.3107 18.2302C20.6963 16.6443 21.5954 14.6926 21.9003 12.6089C21.989 12.0039 22 11.8245 22 11.005C22 10.1849 21.989 10.0096 21.9003 9.40465C21.3016 5.27235 18.362 1.80345 14.3775 0.517219C13.6328 0.281367 12.8664 0.120844 12.0896 0.0380619C11.8813 0.0167508 10.4597 -0.0086851 10.281 0.00987622L10.2803 0.00850131ZM14.781 6.66102C14.8322 6.68613 14.8778 6.7212 14.9152 6.76417C14.9526 6.80714 14.9811 6.85714 14.999 6.91125C15.0175 6.969 15.021 8.16448 15.0175 10.8572L15.01 14.7235L14.3301 13.6786L13.6461 12.6329V9.82606C13.6461 8.00637 13.6536 6.98618 13.6632 6.936C13.6969 6.82093 13.7741 6.72351 13.8784 6.66445C13.9637 6.62114 13.9967 6.61771 14.3369 6.61771C14.6552 6.61771 14.7095 6.62114 14.781 6.66102Z" />
</svg>

<svg xmlns="http://www.w3.org/2000/svg" viewBox="0 0 22 22"><path d="M16.327 20.628c-.082.043-.075.057.004.017a.2.2 0 0 0 .065-.042c0-.014 0-.014-.069.025m.165-.09c-.04.033-.04.033.008.012a.2.2 0 0 0 .046-.033c0-.018-.01-.014-.054.022m.107-.064c-.039.032-.039.032.008.011a.2.2 0 0 0 .047-.033c0-.017-.011-.014-.055.022m.109-.064c-.04.032-.04.032.006.01.026-.013.047-.028.047-.032 0-.017-.011-.014-.053.022m.146-.097c-.075.05-.1.083-.032.047.046-.028.125-.09.11-.09-.029.01-.053.03-.078.043M10.28.01c-.05.003-.2.017-.332.028C6.82.32 3.896 2.003 2.042 4.595A10.9 10.9 0 0 0 .1 9.4c-.088.605-.1.784-.1 1.604s.012.995.1 1.6c.6 4.132 3.539 7.601 7.523 8.887.717.229 1.469.387 2.325.484.332.035 1.771.035 2.104 0 1.48-.165 2.728-.53 3.964-1.16.19-.097.226-.122.2-.144q-.904-1.196-1.793-2.402l-1.758-2.374-2.202-3.262a286 286 0 0 0-2.22-3.261c-.007 0-.017 1.45-.021 3.218-.008 3.097-.008 3.222-.047 3.294a.4.4 0 0 1-.19.197c-.068.032-.129.04-.454.04H7.16l-.097-.061a.4.4 0 0 1-.143-.157l-.046-.097.003-4.311.008-4.312.068-.085a.5.5 0 0 1 .157-.129c.09-.043.126-.05.498-.05.436 0 .508.017.623.143a415 415 0 0 1 2.653 3.995c1.43 2.167 3.38 5.124 4.34 6.574l1.743 2.64.086-.058a11.2 11.2 0 0 0 2.259-1.983 10.95 10.95 0 0 0 2.59-5.621c.088-.605.099-.784.099-1.604s-.011-.995-.1-1.6c-.598-4.133-3.538-7.602-7.522-8.888A11.7 11.7 0 0 0 12.09.038c-.21-.021-1.63-.047-1.81-.028m4.501 6.652a.43.43 0 0 1 .218.25c.018.058.022 1.253.018 3.946l-.007 3.867-.68-1.045-.684-1.046V9.826c0-1.82.008-2.84.017-2.89a.46.46 0 0 1 .215-.272c.086-.043.119-.046.459-.046.318 0 .373.003.444.043"/></svg>
